X:23
T:Gamla Minnen
R:Schottis
S:Efter [[!August Strömberg]]
O:Jät, Småland
M:4/4
L:1/8
K:Am
EE ^GB dc B^G|AB cd e2 e2|a2 E2 c2 BA|^GA Bc d2 e2|
EE ^GB dc B^G|AB cd e2 e2|a2 E2 c2 BA|^GA Bc A4:|
ec ec e2 e2|dB dB d2 d2|cB A^G AB cd|e2 EE E2 E2|
ec ec e2 e2|dB dB d2 d2|cB A^G Ac e^g|a2 A,2 A,4:|
a^g ab c'b ac'|ba ^gb a2 e2|fe df ed ce|dc Bd c2 e2|
a^g ab c'b ac'|ba ^gb a2 e2|fe df ed ce|E2 ^G2 A4:|
(:musicend:)

(:music:)
